Origami/64x64/apps/kube.svg

<svg width="64" height="64" version="1" xmlns="http://www.w3.org/2000/svg">
 <rect transform="matrix(0,-1,-1,0,0,0)" x="-61" y="-60" width="56" height="56" rx="2.8" ry="2.8" style="opacity:.2"/>
 <rect transform="matrix(0,-1,-1,0,0,0)" x="-60" y="-60" width="56" height="56" rx="2.8" ry="2.8" style="fill:#ef5a30"/>
 <path d="m15 13v40h8v-8.570312l5 8.570312h9l-7.371094-13 7.371094-13h-9l-5 8.570312v-22.570312h-8zm25 14-7 12-0.601562 1 0.601562 1 7 12h9l-7.371094-13 7.371094-13h-9z" style="opacity:.2"/>
 <path d="m23 12h-8v40h8z" style="fill:#ffffff"/>
 <path d="m40 26-7 12-0.6 1 0.6 1 7 12h9l-7.371094-13 7.371094-13z" style="fill:#ffffff"/>
 <path d="m28 26-7 12-0.6 1 0.6 1 7 12h9l-7.371094-13 7.371094-13z" style="fill:#ffffff"/>
 <path d="M 6.8007812 4 C 5.2495812 4 4 5.2495812 4 6.8007812 L 4 7.8007812 C 4 6.2495813 5.2495812 5 6.8007812 5 L 57.199219 5 C 58.750419 5 60 6.2495812 60 7.8007812 L 60 6.8007812 C 60 5.2495813 58.750419 4 57.199219 4 L 6.8007812 4 z" style="fill:#ffffff;opacity:.2"/>
</svg>

<svg xmlns="http://www.w3.org/2000/svg" width="64" height="64" version="1">
 <rect style="opacity:0.2" width="56" height="56" x="-61" y="-60" rx="2.8" ry="2.8" transform="matrix(0,-1,-1,0,0,0)"/>
 <rect style="fill:#ef5a30" width="56" height="56" x="-60" y="-60" rx="2.8" ry="2.8" transform="matrix(0,-1,-1,0,0,0)"/>
 <path style="opacity:0.2" d="m 15,13 0,40 8,0 0,-8.570312 L 28,53 37,53 29.628906,40 37,27 28,27 23,35.570312 23,13 15,13 Z M 40,27 33,39 32.398438,40 33,41 40,53 49,53 41.628906,40 49,27 40,27 Z"/>
 <path style="fill:#ffffff" d="m 23,12 -8,0 0,40 8,0 z"/>
 <path style="fill:#ffffff" d="m 40,26 -7,12 -0.6,1 0.6,1 7,12 9,0 L 41.628906,39 49,26 Z"/>
 <path style="fill:#ffffff" d="m 28,26 -7,12 -0.6,1 0.6,1 7,12 9,0 L 29.628906,39 37,26 Z"/>
 <path style="opacity:0.2;fill:#ffffff" d="M 6.8007812 4 C 5.2495812 4 4 5.2495812 4 6.8007812 L 4 7.8007812 C 4 6.2495813 5.2495812 5 6.8007812 5 L 57.199219 5 C 58.750419 5 60 6.2495812 60 7.8007812 L 60 6.8007812 C 60 5.2495813 58.750419 4 57.199219 4 L 6.8007812 4 z"/>
</svg>
